X:69
T:Jack Layton. JBi.68
M:2/4
L:1/8
Q:1/4=130
S:James Biggins MS, Leeds, 1779.
R:.Air
N:Inconsistent last bars in each phrase, take yr pick.
O:England
A:Yorkshire
Z:vmp.Nick Barber & Chris Partington
K:G
GB dg|dBBg|dBBg|â€^trâ€d2B2|GBdg|dBBg|aAAB|â€^trâ€c2c2:|!
|:GBdB|ecdB|GBdB|â€^trâ€d2B2|GBdB|ecdB|cAAB|â€^trâ€c2B2:|!
|:gdBd|BGdB|gdBc|â€^trâ€d2B2|gdGd|BGdB|gAAB|â€^trâ€B2B2:|!
|:GBBB|BBBB|GBBB|â€^trâ€d2B2|GBBB|B>BB>B|cAAB|c2B2:|

